assets/bank-tab/Asset/Smart EMI.svg

<svg width="24" height="24" viewBox="0 0 24 24" fill="none" xmlns="http://www.w3.org/2000/svg">
<g clip-path="url(#clip0_5371_1137)">
<path fill-rule="evenodd" clip-rule="evenodd" d="M17.5385 24C21.1071 24 24 21.1071 24 17.5385C24 13.9699 21.1071 11.0769 17.5385 11.0769C13.9699 11.0769 11.0769 13.9699 11.0769 17.5385C11.0769 21.1071 13.9699 24 17.5385 24ZM18.9362 15.2453H19.5018C19.7547 15.2453 19.9616 15.4737 19.9616 15.7528C19.9616 16.0318 19.7547 16.2602 19.5018 16.2602H18.9676C18.92 16.2602 18.8792 16.2939 18.8682 16.3403C18.6491 17.2643 17.8897 17.95 16.9868 17.95H16.7331C16.6513 17.95 16.6041 18.0429 16.6523 18.109L18.4627 20.5888C18.6236 20.807 18.5914 21.1267 18.3937 21.3043C18.3064 21.3804 18.2052 21.4159 18.1041 21.4159C17.9707 21.4159 17.8374 21.355 17.7455 21.2281L15.2167 17.7623C15.1064 17.61 15.0834 17.402 15.1615 17.2244C15.2351 17.0467 15.4006 16.9351 15.5753 16.9351H16.9868C17.3566 16.9351 17.6797 16.7171 17.8577 16.3932C17.8917 16.3314 17.8437 16.2602 17.7732 16.2602H15.5753C15.3225 16.2602 15.1156 16.0318 15.1156 15.7528C15.1156 15.4737 15.3225 15.2453 15.5753 15.2453H17.7038C17.7791 15.2453 17.8264 15.1655 17.7823 15.1044C17.5943 14.8437 17.309 14.677 16.9868 14.677H15.5753C15.3225 14.677 15.1156 14.4486 15.1156 14.1695C15.1156 13.8904 15.3225 13.6621 15.5753 13.6621H19.5018C19.7547 13.6621 19.9616 13.8904 19.9616 14.1695C19.9616 14.4486 19.7547 14.677 19.5018 14.677H18.808C18.7316 14.677 18.6827 14.7596 18.7143 14.8291C18.7636 14.9373 18.8048 15.0515 18.8381 15.1698C18.8505 15.214 18.8903 15.2453 18.9362 15.2453Z" fill="#8F242A"/>
<path d="M6.76057 0C6.0817 0 5.53137 0.537258 5.53137 1.2V2.40008C4.87747 2.43345 4.21804 2.47398 3.55085 2.5218C2.08846 2.62662 1.35727 2.67903 0.870761 3.16019C0.384252 3.64136 0.339076 4.07083 0.248725 5.53197C-0.0522439 10.3991 -0.103373 12.784 0.224811 17.6285C0.320394 19.0395 0.368186 19.745 0.846333 20.2211C1.32448 20.6972 2.03153 20.7565 3.44563 20.8752C5.81391 21.074 7.30417 21.156 9.27861 21.1415C9.53274 21.1396 9.75727 21.0431 9.93358 20.8878C9.54044 19.9965 9.29941 19.023 9.24338 18.0002H6.43817C4.69982 18.0002 3.83065 18.0002 3.29062 17.473C2.75058 16.9458 2.75058 16.0973 2.75058 14.4002L2.75058 7.84615C2.75058 7.56331 2.75058 7.42189 2.84059 7.33402C2.93059 7.24615 3.07546 7.24615 3.36518 7.24615L17.1936 7.24615C17.4833 7.24615 17.6282 7.24615 17.7182 7.33402C17.8082 7.42189 17.8082 7.56331 17.8082 7.84615V9.16777C17.8082 9.19085 17.8088 9.2133 17.81 9.23512C18.6962 9.26358 19.5474 9.43084 20.3424 9.71586C20.3454 9.63545 20.3485 9.55568 20.3515 9.47625C20.3946 8.3481 20.435 7.29055 20.3007 5.48665C20.1939 4.05254 20.1405 3.63658 19.655 3.16269C19.1695 2.6888 18.4443 2.63745 16.9941 2.53475C16.6842 2.51281 16.376 2.46806 16.0693 2.42352C15.7304 2.37431 15.3933 2.32537 15.0576 2.30769V1.2C15.0576 0.537258 14.5073 0 13.8284 0C13.1496 0 12.5992 0.537258 12.5992 1.2V2.3162C11.0577 2.27413 9.53149 2.27076 7.98976 2.30769V1.2C7.98976 0.537258 7.43943 0 6.76057 0Z" fill="#8F242A"/>
<path d="M12.2862 11.1014C12.2876 11.069 12.2889 11.0354 12.2904 11.0005C12.3002 10.7576 12.3008 10.5424 12.2915 10.2992C12.2734 9.82646 12.2644 9.5901 12.0932 9.42345C11.9221 9.2568 11.6814 9.24866 11.2 9.23237C10.9081 9.2225 10.6208 9.2218 10.3289 9.23077C9.84594 9.24561 9.60448 9.25302 9.43264 9.4199C9.2608 9.58678 9.25167 9.82916 9.23342 10.3139C9.22419 10.5592 9.2228 10.7759 9.23077 11.0218C9.24586 11.4877 9.25341 11.7207 9.4245 11.8884C9.59558 12.0562 9.82844 12.0644 10.2942 12.0808C10.5978 12.0914 10.8941 12.0894 11.1978 12.0767C11.2265 12.0755 11.2544 12.0744 11.2814 12.0732C11.5885 11.7219 11.9247 11.3967 12.2862 11.1014Z" fill="#8F242A"/>
<path d="M4.69321 9.4199C4.52137 9.58678 4.51225 9.82916 4.494 10.3139C4.48476 10.5592 4.48338 10.7759 4.49134 11.0218C4.50644 11.4877 4.51399 11.7207 4.68507 11.8884C4.85615 12.0562 5.08901 12.0644 5.55473 12.0808C5.85835 12.0914 6.15467 12.0894 6.45835 12.0767C6.94158 12.0566 7.1832 12.0466 7.35258 11.8807C7.52196 11.7148 7.53162 11.4767 7.55093 11.0005C7.56078 10.7576 7.56133 10.5424 7.55204 10.2992C7.53399 9.82646 7.52496 9.5901 7.35381 9.42345C7.18266 9.2568 6.94195 9.24866 6.46054 9.23237C6.16865 9.2225 5.88137 9.2218 5.58944 9.23077C5.10652 9.24561 4.86506 9.25302 4.69321 9.4199Z" fill="#8F242A"/>
<path d="M4.69587 13.5737C4.52402 13.7406 4.5149 13.983 4.49665 14.4678C4.48742 14.713 4.48603 14.9297 4.494 15.1756C4.50909 15.6416 4.51664 15.8745 4.68772 16.0423C4.85881 16.21 5.09166 16.2182 5.55738 16.2346C5.86101 16.2453 6.15733 16.2432 6.461 16.2306C6.94424 16.2105 7.18585 16.2004 7.35523 16.0345C7.52461 15.8687 7.53427 15.6306 7.55359 15.1543C7.56344 14.9115 7.56398 14.6963 7.55469 14.453C7.53664 13.9803 7.52762 13.7439 7.35647 13.5773C7.18532 13.4107 6.94461 13.4025 6.4632 13.3862C6.17131 13.3763 5.88402 13.3756 5.5921 13.3846C5.10917 13.3995 4.86771 13.4069 4.69587 13.5737Z" fill="#8F242A"/>
</g>
<defs>
<clipPath id="clip0_5371_1137">
<rect width="24" height="24" fill="white"/>
</clipPath>
</defs>
</svg>

<svg xmlns="http://www.w3.org/2000/svg" width="24" height="24" fill="none" viewBox="0 0 24 24"><g fill="#8f242a" clip-path="url(#a)"><path fill-rule="evenodd" d="M17.539 24a6.461 6.461 0 1 0 0-12.923 6.461 6.461 0 0 0 0 12.923m1.397-8.755h.566c.253 0 .46.229.46.508s-.207.507-.46.507h-.534a.1.1 0 0 0-.1.08c-.219.924-.978 1.61-1.881 1.61h-.254a.1.1 0 0 0-.08.159l1.81 2.48a.545.545 0 0 1-.07.715.436.436 0 0 1-.648-.076l-2.528-3.466a.55.55 0 0 1-.056-.538.46.46 0 0 1 .414-.289h1.412c.37 0 .693-.218.87-.542.035-.062-.013-.133-.084-.133h-2.198c-.252 0-.46-.228-.46-.507 0-.28.207-.508.46-.508h2.129c.075 0 .122-.08.078-.14a.98.98 0 0 0-.795-.428h-1.412c-.252 0-.46-.228-.46-.508 0-.279.207-.507.46-.507h3.927c.253 0 .46.228.46.507 0 .28-.207.508-.46.508h-.694c-.076 0-.125.083-.094.152q.074.163.124.34a.1.1 0 0 0 .098.076" clip-rule="evenodd"/><path d="M6.76 0c-.678 0-1.229.537-1.229 1.2v1.2q-.98.05-1.98.122c-1.463.105-2.194.157-2.68.638s-.532.91-.622 2.372c-.301 4.867-.352 7.252-.024 12.096.095 1.412.143 2.117.621 2.593s1.186.535 2.6.654c2.368.199 3.858.281 5.833.267a1 1 0 0 0 .655-.254A8.3 8.3 0 0 1 9.244 18H6.437c-1.738 0-2.607 0-3.147-.527s-.54-1.376-.54-3.073V7.846c0-.283 0-.424.09-.512s.234-.088.524-.088h13.829c.29 0 .434 0 .524.088s.09.23.09.512v1.322q0 .034.002.067a8.3 8.3 0 0 1 2.532.48l.01-.239c.043-1.128.083-2.185-.051-3.99-.107-1.433-.16-1.85-.646-2.323-.486-.474-1.21-.526-2.66-.628-.31-.022-.619-.067-.926-.111a11 11 0 0 0-1.011-.116V1.2c0-.663-.55-1.2-1.23-1.2C13.15 0 12.6.537 12.6 1.2v1.116a90 90 0 0 0-4.61-.008V1.2C7.99.537 7.44 0 6.762 0"/><path d="m12.286 11.101.004-.1c.01-.243.01-.459.002-.702-.019-.473-.028-.709-.199-.876-.17-.166-.412-.174-.893-.19q-.436-.015-.871-.002c-.483.015-.725.022-.896.189s-.181.41-.2.894a10 10 0 0 0-.002.708c.015.466.022.699.194.866.17.168.403.176.87.193.303.01.6.008.903-.004l.083-.004a8.4 8.4 0 0 1 1.005-.972M4.693 9.42c-.172.167-.18.41-.199.894a10 10 0 0 0-.003.708c.015.466.023.699.194.866s.404.176.87.193c.303.01.6.008.903-.004.484-.02.725-.03.895-.196.169-.166.179-.404.198-.88.01-.243.01-.459.001-.702-.018-.473-.027-.709-.198-.876-.171-.166-.412-.174-.893-.19q-.436-.015-.872-.002c-.482.015-.724.022-.896.189m.003 4.154c-.172.167-.181.409-.2.894a10 10 0 0 0-.002.708c.015.466.023.698.194.866.17.168.404.176.87.193.303.01.6.008.903-.004.483-.02.725-.03.894-.197.17-.165.18-.403.199-.88.01-.242.01-.458 0-.701-.017-.473-.026-.71-.198-.876-.17-.166-.411-.175-.893-.19-.292-.01-.579-.011-.87-.002-.484.014-.725.022-.897.189"/></g><defs><clipPath id="a"><path fill="#fff" d="M0 0h24v24H0z"/></clipPath></defs></svg>
